tools/download-figma-icons/icons/solid/annual-report.svg

<svg width="24" height="24" viewBox="0 0 24 24" fill="none" xmlns="http://www.w3.org/2000/svg">
<path fill-rule="evenodd" clip-rule="evenodd" d="M18.75 4.5H8.25C7.8375 4.5 7.5 4.1625 7.5 3.75C7.5 3.3375 7.8375 3 8.25 3H18.75C19.1625 3 19.5 3.3375 19.5 3.75C19.5 4.1625 19.1625 4.5 18.75 4.5ZM18 21.75C18 22.1625 17.6625 22.5 17.25 22.5H3.75C3.3375 22.5 3 22.1625 3 21.75V5.25C3 4.8375 3.3375 4.5 3.75 4.5H4.5V18.75C4.5 19.9875 5.5125 21 6.75 21H18V21.75ZM13.5 7.52251H8.25C7.8375 7.52251 7.5 7.18501 7.5 6.77251C7.5 6.35251 7.8375 6.02251 8.25 6.02251H13.5C13.9125 6.02251 14.25 6.35251 14.25 6.77251C14.25 7.18501 13.9125 7.52251 13.5 7.52251ZM16.875 13.125C17.085 13.125 17.25 13.29 17.25 13.5C17.25 15.57 15.57 17.25 13.5 17.25C11.43 17.25 9.75 15.57 9.75 13.5C9.75 11.43 11.43 9.75 13.5 9.75C13.71 9.75 13.875 9.915 13.875 10.125V13.125H16.875ZM18 12.375H15C14.9025 12.375 14.805 12.3375 14.7375 12.2625C14.6625 12.195 14.625 12.0975 14.625 12V9C14.625 8.79 14.7975 8.625 15 8.625C16.86 8.625 18.375 10.14 18.375 12C18.375 12.2025 18.21 12.375 18 12.375ZM20.25 0H6.75C5.5125 0 4.5 1.0125 4.5 2.25V3H3.75C2.5125 3 1.5 4.0125 1.5 5.25V21.75C1.5 22.9875 2.5125 24 3.75 24H17.25C18.4875 24 19.5 22.9875 19.5 21.75V21H20.25C21.4875 21 22.5 19.9875 22.5 18.75V2.25C22.5 1.0125 21.4875 0 20.25 0Z" fill="black"/>
</svg>

<svg xmlns="http://www.w3.org/2000/svg" width="24" height="24" fill="none" viewBox="0 0 24 24"><path fill="currentColor" fill-rule="evenodd" d="M18.75 4.5H8.25a.75.75 0 0 1-.75-.75c0-.413.338-.75.75-.75h10.5c.413 0 .75.337.75.75 0 .412-.337.75-.75.75M18 21.75c0 .413-.337.75-.75.75H3.75a.75.75 0 0 1-.75-.75V5.25c0-.412.337-.75.75-.75h.75v14.25A2.257 2.257 0 0 0 6.75 21H18zM13.5 7.523H8.25a.75.75 0 0 1-.75-.75c0-.42.338-.75.75-.75h5.25c.412 0 .75.33.75.75 0 .412-.338.75-.75.75m3.375 5.602c.21 0 .375.165.375.375 0 2.07-1.68 3.75-3.75 3.75s-3.75-1.68-3.75-3.75 1.68-3.75 3.75-3.75c.21 0 .375.165.375.375v3zm1.125-.75h-3a.35.35 0 0 1-.262-.113.35.35 0 0 1-.113-.262V9c0-.21.172-.375.375-.375A3.38 3.38 0 0 1 18.375 12a.376.376 0 0 1-.375.375M20.25 0H6.75A2.257 2.257 0 0 0 4.5 2.25V3h-.75A2.257 2.257 0 0 0 1.5 5.25v16.5A2.257 2.257 0 0 0 3.75 24h13.5a2.257 2.257 0 0 0 2.25-2.25V21h.75a2.257 2.257 0 0 0 2.25-2.25V2.25A2.257 2.257 0 0 0 20.25 0" clip-rule="evenodd"/></svg>
